X:1
T:Title
%%score { ( 1 3 ) | ( 2 4 ) }
L:1/8
M:6/8
K:Ab
V:1 treble nm="Grand Piano"
V:3 treble 
V:2 bass 
V:4 bass 
V:1
 z3 z2[Q:1/4=90] [CE] | [Ec][Ec][Ec] [Ec][EB][EA] | [FA][EG][DF] [CE]2 [CE] | %3
 [EA][EA][EA] [Ec][EB][EA] | Bdc B2 E | [Ec][Ec][Ec] [Ec][EB][A,EA] | %6
 [A,FA][A,EG][A,DF] [A,CE]2 [A,EA] | [A,FA][A,EG][A,DF] [A,CE][A,EA][FB] |[M:5/8] cAB [CA]2 | %9
[M:1/8] c |[M:3/4] [Fd]3 .[FA]3 | [Ec]4 z2 | [EB]4 z2 |[M:5/8] [Ec]-[Ec]- [Ec]3 |[M:1/8] c | %15
[M:3/4] [Fd]3 .[FA]3 | [Ec]4 z2 |[M:13/16] [EB]/-[EB]/-[EB]-<[EB]c/-c-<c z | %18
[M:5/8] [CA]-[CA]- [CA]3 |] %19
V:2
 z3 z2 [A,,A,] | [A,,A,][A,,A,][A,,A,] [A,,A,][B,,G,][C,A,] | [D,A,][D,A,][D,A,] [A,,A,]2 [A,,A,] | %3
 [C,A,][C,A,][C,A,] [A,,A,][B,,G,][C,A,] | [E,G,E][E,B,E][E,A,E] [E,G,E]2 [E,G,] | %5
 [A,,A,][A,,A,][A,,A,] [A,,A,][B,,G,]C, | D,D,D, A,,2 C, | D,D,D, A,,C,[D,A,] | %8
[M:5/8] [E,A,E][E,A,C][E,G,D] [A,,A,]2 |[M:1/8] [A,E] |[M:3/4] [D,A,]D, D,D, D,[D,A,] | %11
 [A,,A,]A,, A,, A,,2 C, | [E,G,]E, E, [F,A,C]2 [E,G,E] |[M:5/8] [A,,A,]A,,A,, A,,2 |[M:1/8] [A,E] | %15
[M:3/4] [D,A,]D, D,D, D,[D,A,] | [A,,A,]A,, A,, A,,2 C, |[M:13/16] z/ z/ z/ z/ z E/-E-<E z | %18
[M:5/8] [A,,E,]-[A,,E,]- [A,,E,]3 |] %19
V:3
 x6 | x6 | x6 | x6 | x6 | x6 | x6 | x6 |[M:5/8] x5 |[M:1/8] x |[M:3/4] z A, A,A, A,[=EB] | %11
 z A, A, [A,CE]2 [A,EA] | z G, G, A2 B |[M:5/8] z A,A, A,2 |[M:1/8] x |[M:3/4] z A, A,A, A,[=EB] | %16
 z A, A, [A,CE]2 [A,EA] |[M:13/16] z G,G, z A,3/2B |[M:5/8] x5 |] %19
V:4
 x6 | x6 | x6 | x6 | x6 | x6 | x6 | x6 |[M:5/8] x5 |[M:1/8] x |[M:3/4] x6 | x6 | x6 |[M:5/8] x5 | %14
[M:1/8] x |[M:3/4] x6 | x6 |[M:13/16] [E,G,]E,E,[E,A,]E,3/2[E,D] |[M:5/8] x5 |] %19

